img/footer/twitter.svg

<svg width="55" height="55" viewBox="0 0 55 55" fill="none" xmlns="http://www.w3.org/2000/svg">
<path d="M27.5 0C12.3145 0 0 12.3145 0 27.5C0 42.6855 12.3145 55 27.5 55C42.6855 55 55 42.6855 55 27.5C55 12.3145 42.6855 0 27.5 0ZM40.0562 21.4416C40.0684 21.7122 40.0742 21.9841 40.0742 22.2573C40.0742 30.598 33.7254 40.2161 22.1151 40.2165H22.1155H22.1151C18.5504 40.2165 15.2333 39.1716 12.44 37.3811C12.9338 37.4395 13.4365 37.4684 13.9455 37.4684C16.903 37.4684 19.6246 36.4597 21.7852 34.7665C19.0221 34.7153 16.6924 32.8904 15.8884 30.3823C16.2732 30.4562 16.6689 30.4965 17.0746 30.4965C17.6508 30.4965 18.2088 30.4189 18.7392 30.2741C15.851 29.6959 13.6753 27.1433 13.6753 24.0868C13.6753 24.0583 13.6753 24.0327 13.6761 24.0063C14.5267 24.4792 15.4994 24.7637 16.535 24.7956C14.8402 23.6647 13.7261 21.7315 13.7261 19.5415C13.7261 18.3851 14.0387 17.3016 14.5808 16.3688C17.6936 20.1882 22.3454 22.7 27.5915 22.9639C27.4832 22.5015 27.4274 22.0198 27.4274 21.5247C27.4274 18.0402 30.2544 15.2132 33.7401 15.2132C35.5558 15.2132 37.1957 15.9807 38.3475 17.2076C39.7855 16.924 41.1359 16.3986 42.3557 15.6756C41.8836 17.1489 40.8833 18.3851 39.5799 19.1668C40.8568 19.0141 42.0737 18.6755 43.2046 18.1728C42.3599 19.4387 41.2886 20.5507 40.0562 21.4416Z" fill="black"/>
</svg>

<svg width="55" height="55" fill="none" xmlns="http://www.w3.org/2000/svg"><path d="M27.5 0C12.315 0 0 12.315 0 27.5S12.315 55 27.5 55 55 42.685 55 27.5 42.685 0 27.5 0zm12.556 21.442c.012.27.018.542.018.815 0 8.341-6.349 17.96-17.959 17.96a17.866 17.866 0 01-9.675-2.836c.494.059.997.087 1.505.087 2.958 0 5.68-1.008 7.84-2.702a6.32 6.32 0 01-5.897-4.384 6.278 6.278 0 002.851-.108 6.314 6.314 0 01-5.064-6.187l.001-.08a6.27 6.27 0 002.859.789 6.306 6.306 0 01-2.809-5.255c0-1.156.313-2.24.855-3.172a17.92 17.92 0 0013.01 6.595 6.313 6.313 0 0110.756-5.756 12.659 12.659 0 004.009-1.532 6.336 6.336 0 01-2.776 3.49 12.588 12.588 0 003.625-.993 12.83 12.83 0 01-3.149 3.269z" fill="#000"/></svg>
